X:1
T:Exultet orbis 2
T:André Vierendeels
T:21/02/18
T:Early melody
T:Exultet orbis 2
T:ad voces aequales
T:©
T:©
C:André Vierendeels
Z:©
%%score [ 1 2 3 4 ]
L:1/8
Q:1/4=110
M:3/4
K:C
V:1 treble-8 nm="Tenor 1" snm="T 1"
V:2 treble-8 nm="Tenor 2" snm="T 2"
V:3 treble-8 nm="Tenor 3" snm="T 3"
V:4 bass nm="Bass" snm="B"
V:1
 z4 c2 | c4 c2 | c2 e2 d2 | c2 B2 A2 | !fermata!G4 B2 | c4 B2 | A4 G2 | A4 c2 | !fermata!G4 G2 | %9
w: Ex-|ul- tet|or- * bis|gran- * di-|is, fe-|stis in|his pa-|scha- li-|bus: vic-|
 E2 F2 G2 | A4 G2 | E4 D2 | !fermata!C4 D2 | E4 D2 | E4 A2 | A2 G2 F2 | !fermata!E4 D2 | C4 D2 | %18
w: tor _ re-|di- vit|in- fe-|ris, De-|us to-|nans in|nu- * ni-|bus, De-|us to-|
 E4 A2 | A2 G2 F2 | E6 |] %21
w: nans in|nu- * ni-|bus.|
V:2
 z4 G2 | A4 c2 | G2 c2 B2 | G4 ^F2 | !fermata!D4 G2 | c4 G2 | E4 E2 | F2 A4 | !fermata!G4 E2 | %9
w: Ex-|ul- tet|or- * bis|gran- di-|is, fe-|stis in|his pa-|scha- li-|bus: vic-|
 C2 D2 E2 | F2 D4 | C4 B,2 | !fermata!C4 B,2 | C4 D2 | C4 F2- | F2 G2 A2 | !fermata!E4 G2 | G4 F2 | %18
w: tor re- di-|* vit|in fe-|ris, De-|us to-|nans in|_ nu- ni-|bus, De-|us to-|
 C4 E2 | F2 G2 A2 | A6 |] %21
w: nans in|nu- * ni-|bus.|
V:3
 z4 E2 | F4 A2 | E2 G4 | E2 D2 D2 | !fermata!B,4 E2 | G4 E2 | C4 C2 | C4 F2 | !fermata!D4 C2 | %9
w: Ex-|ul- tet|or- bis|gran- * di-|is, fe-|stis in|his pa-|scha- li-|bus: vic-|
 C2 A,2 C2- | C2 D2 G2 | G4 D2 | !fermata!A,4 B,2 | E4 F2 | C4 D2 | D2 B,2 D2 | !fermata!C4 D2 | %17
w: tor re- di-|* * vit|in fe-|ris, De-|us to-|nans in|nu- * ni-|bus, De-|
 E4 D2 | G4 C2 | C4 D2 | C6 |] %21
w: us to-|nans in|nu- ni-|bus.|
V:4
 z4 C,2 | F,,4 F,2 | E,2 C,2 G,2 | C,2 G,,2 D,2 | !fermata!G,,4 E,2 | E,4 E,2 | A,,4 C,2 | %7
w: Ex-|ul- tet|or- * bis|gran- * di-|is, fe-|stis in|his pa-|
 F,,4 F,,2 | !fermata!G,,4 C,2 | A,,2 F,,2 C,2 | F,,2 D,2 _B,,2 | C,4 G,,2 | !fermata!F,,4 G,,2 | %13
w: scha- li-|bus: vic-|tor re- di-|* * vit|in fe-|ris, De-|
 A,,4 _B,,2 | A,,2 E,2 D,2 | F,2 D,4 | !fermata!A,,4 G,,2 | C,4 _B,,2 | C,4 A,,2 | F,,2 C,2 D,2 | %20
w: us to-|* nans in|nu- ni-|bus, De-|us to-|nans in|nu- * ni-|
 A,,6 |] %21
w: bus|

